packages/katcn/src/icons/svg/chip-solid.svg

<svg width="24" height="25" viewBox="0 0 24 25" fill="none" xmlns="http://www.w3.org/2000/svg">
<path d="M22 14.676H19.4V11.276H22C22.6 11.276 23 10.876 23 10.276C23 9.67601 22.6 9.27601 22 9.27601H19.4V8.47601C19.4 6.87601 18.1 5.67601 16.6 5.67601H15.8V2.97601C15.8 2.37601 15.4 1.97601 14.8 1.97601C14.2 1.97601 13.8 2.37601 13.8 2.97601V5.57601H10.3V2.97601C10.3 2.37601 9.9 1.97601 9.3 1.97601C8.7 1.97601 8.3 2.37601 8.3 2.97601V5.57601H7.5C5.9 5.57601 4.7 6.87601 4.7 8.37601V9.17601H2C1.4 9.17601 1 9.57601 1 10.176C1 10.776 1.4 11.176 2 11.176H4.6V14.676H2C1.4 14.676 1 15.076 1 15.676C1 16.276 1.4 16.676 2 16.676H4.6V17.476C4.6 19.076 5.9 20.276 7.4 20.276H8.2V22.976C8.2 23.576 8.6 23.976 9.2 23.976C9.8 23.976 10.2 23.576 10.2 22.976V20.376H13.7V22.976C13.7 23.576 14.1 23.976 14.7 23.976C15.3 23.976 15.7 23.576 15.7 22.976V20.376H16.5C18.1 20.376 19.3 19.076 19.3 17.576V16.776H22C22.6 16.776 23 16.376 23 15.776C23 15.176 22.6 14.676 22 14.676Z" fill="black"/>
</svg>

<svg xmlns="http://www.w3.org/2000/svg" fill="none" viewBox="0 0 24 25"><path fill="#000" d="M22 14.676h-2.6v-3.4H22c.6 0 1-.4 1-1s-.4-1-1-1h-2.6v-.8c0-1.6-1.3-2.8-2.8-2.8h-.8v-2.7c0-.6-.4-1-1-1s-1 .4-1 1v2.6h-3.5v-2.6c0-.6-.4-1-1-1s-1 .4-1 1v2.6h-.8c-1.6 0-2.8 1.3-2.8 2.8v.8H2c-.6 0-1 .4-1 1s.4 1 1 1h2.6v3.5H2c-.6 0-1 .4-1 1s.4 1 1 1h2.6v.8c0 1.6 1.3 2.8 2.8 2.8h.8v2.7c0 .6.4 1 1 1s1-.4 1-1v-2.6h3.5v2.6c0 .6.4 1 1 1s1-.4 1-1v-2.6h.8c1.6 0 2.8-1.3 2.8-2.8v-.8H22c.6 0 1-.4 1-1s-.4-1.1-1-1.1"/></svg>
